sass/icons/zm-logo--white.svg

<?xml version="1.0" encoding="UTF-8" standalone="no"?>
<svg width="103px" height="50px" viewBox="0 0 103 50" version="1.1" xmlns="http://www.w3.org/2000/svg" xmlns:xlink="http://www.w3.org/1999/xlink" xmlns:sketch="http://www.bohemiancoding.com/sketch/ns">
    <title>ZM-logo</title>
    <description>Created with Sketch (http://www.bohemiancoding.com/sketch)</description>
    <defs></defs>
    <g id="Longform" stroke="none" stroke-width="1" fill="none" fill-rule="evenodd" sketch:type="MSPage">
        <g id="ZM-logo" sketch:type="MSArtboardGroup" fill="#fff">
            <g id="Z-+-M" sketch:type="MSLayerGroup">
                <path d="M7.02581179,45.4926316 L6.66863125,45.4926316 C6.50054628,45.4926316 6.45012079,45.3489242 6.55377319,45.1718303 L31.4821741,2.48711706 C31.5858264,2.31002314 31.8078387,2.16631579 31.9745229,2.16631579 L32.3317035,2.16631579 C32.4983877,2.16631579 32.5502139,2.31002314 32.4465615,2.48711706 L7.51816067,45.1718303 C7.41450827,45.3489242 7.19249605,45.4926316 7.02581179,45.4926316 M37.9132729,35.3459641 C36.5486123,37.920013 28.7214619,45.1722146 18.5243748,45.1722146 L11.5874691,45.1722146 L39,0.2491702 L12.284089,0.2491702 C9.1932399,0.2491702 6.23885683,0 6.23885683,0 C6.23885683,0 1.43825227,10.9010188 1.00170376,11.8465877 C0.695905469,12.5110416 1.38252267,12.8361697 1.80978291,12.1234435 C3.1201429,9.93699275 8.85814784,2.79553347 20.3355867,2.79553347 L27.0774389,2.79553347 L0,47.6589474 L32.9833471,47.6589474 C32.9833471,47.6589474 38.2762297,36.1488459 38.5270129,35.5674488 C38.7770816,34.9860516 38.1940643,34.8185184 37.9132729,35.3459641" id="Z" sketch:type="MSShapeGroup"></path>
                <path d="M92.884399,45.1718249 C92.884399,45.3489218 92.7407703,45.4926316 92.5637734,45.4926316 L92.1865668,45.4926316 C92.0095699,45.4926316 91.8666667,45.3489218 91.8666667,45.1718249 L91.8666667,2.48639662 C91.8666667,2.30929974 92.0095699,2.16631579 92.1865668,2.16631579 L92.5637734,2.16631579 C92.7407703,2.16631579 92.884399,2.30929974 92.884399,2.48639662 L92.884399,45.1718249 Z M72.3018493,40.589394 L72.1132202,41.0633458 C72.0496605,41.2244322 71.8911027,41.1714526 71.8159245,40.9981953 L55.0621118,2.46348081 C54.9862501,2.29022351 55.0668958,2.17280947 55.2275039,2.17066165 L55.5822085,2.16636602 C55.7496509,2.1642182 55.882238,2.23008461 56.0134582,2.53221098 L72.3230359,40.0789293 C72.3988976,40.2536185 72.3654091,40.4283077 72.3018493,40.589394 L72.3018493,40.589394 Z M72.7206605,39.7642113 L72.7424224,39.8260837 L72.3666667,38.9936842 L72.7206605,39.7642113 Z M102.316002,47.0985612 C100.107168,47.0985612 97.6560504,45.7798158 97.6560504,42.0667528 L97.67346,6.06421404 C97.67346,2.58640995 100.86956,1.31802588 102.085326,1.31802588 C102.510409,1.31802588 102.56699,0.2525257 102.085326,0.2525257 L88.4841278,0.253964593 L74.4252041,35.1960393 C74.4252041,35.1960393 58.9466779,0.950388746 58.515792,0 C58.515792,0 55.2768933,0.2525257 53.1913763,0.2525257 L45.0364606,0.2525257 C44.5562477,0.2525257 44.6121032,1.31802588 45.0364606,1.31802588 C46.2529518,1.31802588 49.9016999,2.75476042 49.9016999,6.40163442 L49.9016999,37.1299113 C49.9016999,45.3366368 47.6196002,47.0985612 44.5845381,47.0985612 C44.1601808,47.0985612 43.9904378,48.3014756 44.5845381,48.3014756 L58.7544477,48.3014756 C59.348548,48.3014756 59.1788051,47.0985612 58.7544477,47.0985612 C55.4255998,47.0985612 53.1899255,45.3366368 53.1899255,37.1299113 L53.2037081,10.9945805 L71.5410247,49.8252632 L88.4855786,7.45130677 L88.4855786,42.0667528 C88.4855786,45.7798158 86.6445205,47.0985612 84.0729873,47.0985612 C83.6486299,47.0985612 83.4781615,48.3014756 84.0729873,48.3014756 L102.316002,48.3014756 C102.909377,48.3014756 102.739634,47.0985612 102.316002,47.0985612 L102.316002,47.0985612 Z" id="M" sketch:type="MSShapeGroup"></path>
            </g>
        </g>
    </g>
</svg>

<?xml version="1.0" encoding="utf-8"?>
<svg width="103px" height="50px" viewBox="0 0 103 50" version="1.1" xmlns="http://www.w3.org/2000/svg" xmlns:xlink="http://www.w3.org/1999/xlink">
<g id="ZM" fill="#FFFFFF">
	<path id="Z" d="M7,45.5H6.7c-0.2,0-0.2-0.1-0.1-0.3L31.5,2.5c0.1-0.2,0.3-0.3,0.5-0.3h0.4c0.2,0,0.2,0.1,0.1,0.3
		L7.5,45.2C7.4,45.3,7.2,45.5,7,45.5 M37.9,35.3c-1.4,2.6-9.2,9.8-19.4,9.8h-6.9L39,0.2H12.3c-3.1,0-6-0.2-6-0.2S1.4,10.9,1,11.8
		c-0.3,0.7,0.4,1,0.8,0.3c1.3-2.2,7-9.3,18.5-9.3h6.7L0,47.7h33c0,0,5.3-11.5,5.5-12.1C38.8,35,38.2,34.8,37.9,35.3"/>
	<path id="M" d="M92.9,45.2c0,0.2-0.1,0.3-0.3,0.3h-0.4c-0.2,0-0.3-0.1-0.3-0.3V2.5c0-0.2,0.1-0.3,0.3-0.3h0.4
		c0.2,0,0.3,0.1,0.3,0.3V45.2z M72.3,40.6l-0.2,0.5c-0.1,0.2-0.2,0.1-0.3-0.1L55.1,2.5c-0.1-0.2,0-0.3,0.2-0.3l0.4,0
		c0.2,0,0.3,0.1,0.4,0.4l16.3,37.5C72.4,40.3,72.4,40.4,72.3,40.6L72.3,40.6z M72.7,39.8L72.7,39.8L72.4,39L72.7,39.8z M102.3,47.1
		c-2.2,0-4.7-1.3-4.7-5l0-36c0-3.5,3.2-4.7,4.4-4.7c0.4,0,0.5-1.1,0-1.1l-13.6,0L74.4,35.2c0,0-15.5-34.2-15.9-35.2
		c0,0-3.2,0.3-5.3,0.3H45c-0.5,0-0.4,1.1,0,1.1c1.2,0,4.9,1.4,4.9,5.1v30.7c0,8.2-2.3,10-5.3,10c-0.4,0-0.6,1.2,0,1.2h14.2
		c0.6,0,0.4-1.2,0-1.2c-3.3,0-5.6-1.8-5.6-10l0-26.1l18.3,38.8L88.5,7.5v34.6c0,3.7-1.8,5-4.4,5c-0.4,0-0.6,1.2,0,1.2h18.2
		C102.9,48.3,102.7,47.1,102.3,47.1L102.3,47.1z"/>
</g>
</svg>
